X:4124
T:McFadden's Favourite
O:england
R:reel
D:Andy McGann & Paul Brady
D:Frankie Gavin: Croch Suas E
M:C|
K:G
G2FG EGDB,|G,A,B,D EA,~A,2|DGGF GABd|1 gedc BGAF:|2 gedc BG~G2||
|:~g3a bgaf|g2bg eaaf|1 ~g3a bgaf|gedc BGBd:|2 ~g3f ~e3d|(3Bcd ed BGAF||
"variations"
|:G2BG EGDB,|G,A,B,D EA,~A,2|DGGF G2Bd|1 edgd BcAB:|2 eBdc BGBd||
|:~g3a bgaf|gabg ea~a2|1 g2dg bgag|egdc Bdef:|2 gbaf gfed|(3Bcd eg edBA||


